!!!!SEGMENT: pl-sa--179-a-v-9--004_anonim--msza-sanctus.krn
!!!cenid: 17xx:1642
!!!COM: Anonim
!!!COM-rismID: pe30004985
!!!CDT:
!!!CNT:
!!!OPR: Msza
!!!OTL: Sanctus
!!!OMV: 004
!!!PDT:
!!!AGN: Sacred; Mass
!!!SMS-siglum: PL-SA
!!!SMS-shelfmark: 179/A V 9
!!!SMS-shelfwork: 001-004 M
!!!SMS-variant:
!!!SMS-altvar:
!!!NIFC-rismSourceID: 1001035886
!!!NIFC-rismChildID: 1001035886
!!!NIFC-islandoraID:
!!!URL-pdf-islandora:
!!!URL-scan: https://bc.bdsandomierz.pl/dlibra/publication/1514/edition/1482/content @EN{Scan in the Sandomierz Diocese Digital Library} @PL{Skany w portalu Cyfrowa Biblioteka Diecezjalna w Sandomierzu}
!!!ONB-nifc: UWAGA: części Mszy: 1. Kyrie, 2. Et in terra, 3. Patrem, 4. Sanctus, 5. Agnus Dei
!!!AIN: 1 alto 1 bass 1 soprn 2 violn
!!!key: D
**kern	**dynam	**kern	**dynam	**kern	**text	**kern	**text	**kern	**text
*part5	*part5	*part4	*part4	*part3	*part3	*part2	*part2	*part1	*part1
*staff5	*	*staff4	*	*staff3	*staff3	*staff2	*staff2	*staff1	*staff1
*I"Violino 2do.	*	*I"Violino 1mo.	*	*I"Baſso	*	*I"Alto.	*	*I"Canto.	*
*I'vl II	*	*I'vl I	*	*I'B	*	*I'A	*	*I'S	*
*ICstr	*	*ICstr	*	*ICvox	*	*ICvox	*	*ICvox	*
*Ivioln	*	*Ivioln	*	*Ibass	*	*Ialto	*	*Isoprn	*
*clefG2	*	*clefG2	*	*clefF4	*	*clefC3	*	*clefC1	*
*k[f#c#]	*	*k[f#c#]	*	*k[f#c#]	*	*k[f#c#]	*	*k[f#c#]	*
*D:	*	*D:	*	*D:	*	*D:	*	*D:	*
*M4/4	*	*M4/4	*	*M4/4	*	*M4/4	*	*M4/4	*
*met(C.)	*	*met(C)	*	*met(C.)	*	*met(C.)	*	*met(C.)	*
=1	=1	=1	=1	=1	=1	=1	=1	=1	=1
*	*	*	*	*2\right	*	*2\right	*	*2\right	*
!LO:TX:a:B:t=adag&colon;	!	!LO:TX:a:B:t=moderato.	!	!LO:TX:a:B:t=moderato	!	!LO:TX:a:B:t=moderato	!	!LO:TX:a:B:t=adagio	!
8d/L	.	8d/L	.	4D/	San-	4f#\	San-	4dd\	San-
16d/L	.	16d/L	.	.	.	.	.	.	.
16d/JJ	.	16d/JJ	.	.	.	.	.	.	.
8d/L	.	8d/L	.	4D/	-ct(us)	4f#\	-ct(us)	4dd\	-ct(us)
8d/J	.	8d/J	.	.	.	.	.	.	.
!	!	!	!	!LO:TX:t=P:problem=mixed beam	!	!	!	!	!
*	*	*	*	*	*ij	*	*ij	*	*ij
8d/L	.	8d/L	.	16D/LL	San-	2f#\	San-	2dd\	San-
.	.	.	.	16d\	.	.	.	.	.
8A/	.	8A/	.	16c#\	.	.	.	.	.
.	.	.	.	16B\JJ	.	.	.	.	.
8d/	.	8d/	.	16A\LL	.	.	.	.	.
.	.	.	.	16G\	.	.	.	.	.
8f#/J	.	8f#/J	.	16F#\	.	.	.	.	.
.	.	.	.	16E\JJ	.	.	.	.	.
=2	=2	=2	=2	=2	=2	=2	=2	=2	=2
16a/LL	.	16a/LL	.	4D\	-ct(us)	4f#\	-ct(us)	4dd\	-ct(us)
16d/	.	16d/	.	.	.	.	.	.	.
16e/	.	16e/	.	.	.	.	.	.	.
16f#/JJ	.	16f#/JJ	.	.	.	.	.	.	.
16g\LL	.	16g/LL	.	4r	.	4r	.	4r	.
16a\	.	16a/	.	.	.	.	.	.	.
16b\	.	16b/	.	.	.	.	.	.	.
16cc#\JJ	.	16cc#/JJ	.	.	.	.	.	.	.
!	!	!LO:TX:t=P:problem=mixed beam	!	!	!	!	!	!	!
8dd\L	.	8dd\L	.	16F#\LL	San-	4a\	San-	4ff#\	San-
.	.	.	.	16D\	.	.	.	.	.
16ff#\L	.	16d/L	.	16E\	.	.	.	.	.
16ff#\JJ	.	16d/JJ	.	16F#\JJ	.	.	.	.	.
8ff#\L	.	8d/L	.	16G\LL	.	4a\	-ct(us)	4ff#\	-ct(us)
.	.	.	.	16A\	.	.	.	.	.
8ff#\J	.	8d/J	.	16B\	.	.	.	.	.
.	.	.	.	16c#\JJ	.	.	.	.	.
=3	=3	=3	=3	=3	=3	=3	=3	=3	=3
!	!	!	!	!	!	!	!	!	!
16ff#\LL	.	16dd\LL	.	2d\	.	2a\	San-	2ff#\	San-
16ff#\	.	16dd\	.	.	.	.	.	.	.
16dd\	.	16a\	.	.	.	.	.	.	.
16dd\JJ	.	16a\JJ	.	.	.	.	.	.	.
16a/LL	.	16f#/LL	.	.	.	.	.	.	.
16a/	.	16f#/	.	.	.	.	.	.	.
16f#/	.	16d/	.	.	.	.	.	.	.
16f#/JJ	.	16d/JJ	.	.	.	.	.	.	.
16dd\LL	.	16ff#\LL	.	4D/	-ct(us)	4a\	-ct(us)	4ff#\	-ct(us)
16dd\	.	16ff#\	.	.	.	.	.	.	.
16a\	.	16dd\	.	.	.	.	.	.	.
*	*	*	*	*	*Xij	*	*Xij	*	*Xij
16a\JJ	.	16dd\JJ	.	.	.	.	.	.	.
16f#/LL	.	16a/LL	.	4r	.	4r	.	4r	.
16f#/	.	16a/	.	.	.	.	.	.	.
16d/	.	16f#/	.	.	.	.	.	.	.
16d/JJ	.	16f#/JJ	.	.	.	.	.	.	.
!LO:LB:g=original	!	!	!	!	!	!	!	!	!
=4	=4	=4	=4	=4	=4	=4	=4	=4	=4
16b/LL	.	16dd\LL	.	8D/	Doi-	8d\	Do-	8b\	o-
16b/	.	16dd\	.	.	.	.	.	.	.
16g/	.	16b\	.	16D/	-mi-	16d\	-mi-	16b\	-mi-
16g/JJ	.	16b\JJ	.	16D/	-n(us)	16d\	-n(us)	16b\	-n(us)
16b\LL	.	16g/LL	.	8D/	De-	8d\	De-	8b\	De-
16b\	.	16g/	.	.	.	.	.	.	.
16dd\	.	16d/	.	8D/	-us	8d\	-us	8b\	-us
16dd\JJ	.	16d/JJ	.	.	.	.	.	.	.
!	!	!LO:LB:g=original	!	!	!	!	!	!	!
16b\LL	.	16gg\LL	.	4.D/	Sa-	4.d\	Sa-	4.b\	Sa-
16b\	.	16gg\	.	.	.	.	.	.	.
16gg\	.	16dd\	.	.	.	.	.	.	.
16gg\JJ	.	16dd\JJ	.	.	.	.	.	.	.
16dd\LL	.	16b/LL	.	.	.	.	.	.	.
16dd\	.	16b/	.	.	.	.	.	.	.
16b\	.	16g/	.	8D/	-ba-	8d\	-ba-	8b\	-ba-
16b\JJ	.	16g/JJ	.	.	.	.	.	.	.
!	!	!	!	!LO:LB:g=original	!	!	!	!	!
=5	=5	=5	=5	=5	=5	=5	=5	=5	=5
!	!	!LO:TX:t=P:problem=mixed beam	!	!	!	!	!	!	!
8a\L	.	8f#/L	.	4D/	-oth	4d\	-oth	4a\	-oth
16ff#\L	.	16aa\L	.	.	.	.	.	.	.
16ff#\JJ	.	16aa\JJ	.	.	.	.	.	.	.
16ee\LL	.	16gg\LL	.	4r	.	4r	.	4r	.
16ee\	.	16gg\	.	.	.	.	.	.	.
16dd\	.	16ff#\	.	.	.	.	.	.	.
16dd\JJ	.	16ff#\JJ	.	.	.	.	.	.	.
!	!	!	!	!	!	!LO:LB:g=original	!	!	!
16ee\LL	.	16gg\LL	.	8C#/	ple-	8a\	ple-	8gg\	ple-
16ee\	.	16a\	.	.	.	.	.	.	.
16ee\	.	16cc#\	.	16C#/	-ni	16a\	-ni-	16gg\	-ni-
16ee\JJ	.	16ee\JJ	.	16C#/	s(un)t	16a\	-ni	16gg\	-s(un)t
!	!	!	!	!	!	!	!	!LO:LB:g=original	!
16ee\LL	.	16gg\LL	.	8C#/	cae-	8a\	cae-	8gg\	cae-
16ee\	.	16ee\	.	.	.	.	.	.	.
16ee\	.	16cc#\	.	16C#/	-li-	16a\	-li	16gg\	-li
16ee\JJ	.	16a\JJ	.	16C#/	-et	16a\	et	16gg\	et
=6	=6	=6	=6	=6	=6	=6	=6	=6	=6
16dd\LL	.	16ff#\LL	.	8D/	ter-	8a\	ter-	8ff#\	ter-
16ff#\	.	16a\	.	.	.	.	.	.	.
16ff#\	.	16b\	.	8D/	-ra	8a\	-ra	8ff#\	-ra
16ff#\JJ	.	16cc#\JJ	.	.	.	.	.	.	.
!	!	!LO:TX:t=P:problem=mixed beam	!	!	!	!	!	!	!
16ff#\LL	.	16dd\LL	.	8D/	glo-	8a\	glo-	8ff#\	glo-
16ff#\	.	16f#/	.	.	.	.	.	.	.
16ff#\	.	16e/	.	16D/	-ri-	16a\	-ri-	16ff#\	-ri-
16ff#\JJ	.	16d/JJ	.	16D/	-a	16a\	-a	16ff#\	-a
16ee\LL	.	16G/LL 16d 16b	.	8G\	tu-	8g\	tu-	8ee\	tu-
16b\	.	16ee/	.	.	.	.	.	.	.
16b\	.	16ee/	.	8G\	-a	8g\	-a	8ee\	-a
16b\JJ	.	16ee/JJ	.	.	.	.	.	.	.
16b\LL	.	16gg\LL	.	8G\	glo-	8g\	glo-	8dd\	glo-
16ee\	.	16b\	.	.	.	.	.	.	.
16ee\	.	16b\	.	16G\	-ri-	16g\	-ri-	16dd\	-ri-
16ee\JJ	.	16b\JJ	.	16G\	-a	16g\	-a	16dd\	-a
=7	=7	=7	=7	=7	=7	=7	=7	=7	=7
16ee\LL	.	16cc#\LL	.	4G\	tu-	4e\	tu-	4cc#\	tu-
16ee\	.	16a\	.	.	.	.	.	.	.
16ee\	.	16a\	.	.	.	.	.	.	.
16ee\JJ	.	16cc#\JJ	.	.	.	.	.	.	.
16dd\LL	.	16dd\LL	.	4F#\	-a	4f#\	-a	4dd\	-a
16dd\	.	16a\	.	.	.	.	.	.	.
16dd\	.	16a\	.	.	.	.	.	.	.
16dd\JJ	.	16dd\JJ	.	.	.	.	.	.	.
!	!	!	!	!LO:LB:g=original	!	!	!	!	!
16cc#\LL	.	16gg\LL	.	8E\	glo-	8g\	glo-	8gg\	glo-
16cc#\	.	16gg\	.	.	.	.	.	.	.
16cc#\	.	16gg\	.	16E\	-ri-	16e\	-ri-	16gg\	-ri-
16cc#\JJ	.	16gg\JJ	.	16E\	-a	16e\	-a	16gg\	-a
*	*	*	*	*	*ij	*	*ij	*	*ij
!	!	!	!	!	!	!LO:LB:g=original	!	!	!
16dd\LL	.	16ff#\LL	.	8D\	glo-	8f#\	glo-	8ff#\	glo-
16dd\	.	16ff#\	.	.	.	.	.	.	.
16dd\	.	16ff#\	.	16D\	-ri-	16a\	-ri-	16ff#\	-ri-
16dd\JJ	.	16ff#\JJ	.	16D\	-a	16a\	-a	16ff#\	-a
*	*	*	*	*	*Xij	*	*Xij	*	*Xij
=8	=8	=8	=8	=8	=8	=8	=8	=8	=8
16ee\LL	.	16ee\LL	.	4A\	tu-	2a\	tu-	2ee\	tu-
16ee\	.	16dd\	.	.	.	.	.	.	.
16ee\	.	16dd\	.	.	.	.	.	.	.
16ee\JJ	.	16dd\JJ	.	.	.	.	.	.	.
16ee\LL	.	16cc#\LL	.	4AA/	.	.	.	.	.
16ee\	.	16cc#\	.	.	.	.	.	.	.
16ee\	.	16cc#\	.	.	.	.	.	.	.
16ee\JJ	.	16cc#\JJ	.	.	.	.	.	.	.
!	!	!LO:TX:t=P:problem=mixed beam	!	!	!	!	!	!	!
!LO:LB:g=original	!	!	!	!	!	!	!	!LO:LB:g=original	!
8ff#\L	.	32dd\LLL	.	4D/	-a	4a\	-a	4dd\	-a
.	.	32d/	.	.	.	.	.	.	.
.	.	32e/	.	.	.	.	.	.	.
.	.	32f#/	.	.	.	.	.	.	.
16ff#\L	.	32g/	.	.	.	.	.	.	.
.	.	32a/	.	.	.	.	.	.	.
16ff#\JJ	.	32b/	.	.	.	.	.	.	.
.	.	32cc#/JJJ	.	.	.	.	.	.	.
8ff#\L	.	8dd\L	.	4r	.	4r	.	8r	.
!	!	!	!	!	!	!	!	!LO:TX:a:B:t=all'o	!
8a/J	.	8a\J	.	.	.	.	.	8a\	o-
!	!	!LO:LB:g=original	!	!	!	!	!	!	!
=9	=9	=9||:	=9	=9	=9	=9	=9	=9	=9
!LO:TX:a:B:t=all'o	!	!	!	!LO:TX:a:B:t=all'o	!	!LO:TX:a:B:t=all'o	!	!	!
!	!	!LO:TX:t=P:problem=repetycja taktu - bład wyświetlania VHV	!	!	!	!	!	!	!
8a\L	.	8a\L	.	8r	.	8r	.	8a\L	-san-
16ee\L	.	16gg\L	.	8A\	o-	8a\	o-	16gg\L	.
16dd\JJ	.	16ff#\JJ	.	.	.	.	.	16ff#\JJ	.
8ee\L	.	8gg\L	.	8A\	-san-	8a\	-san-	8gg\	-na
8a\J	.	8a\J	.	8A\	-na	8a\	-na	8a\	o-
8a\L	.	8a\L	.	8r	.	8r	.	8a\L	-sa-
*	*	*	*	*	*ij	*	*ij	*	*
16dd\L	.	16ff#\L	.	8D\	o-	8a\	o-	16ff#\L	.
16cc#\JJ	.	16ee\JJ	.	.	.	.	.	16ee\JJ	.
8dd\L	.	8ff#\L	.	8D\	-san-	8a\	-sa-	8ff#\	-na
8a\J	.	8a\J	.	8D\	-na	8a\	-na	8r	.
=10	=10	=10:||	=10	=10	=10	=10	=10	=10	=10
!	!	!LO:TX:t=P:problem=repetycja taktu	!	!	!	!	!	!	!
8a\L	.	8a\Lyy	.	8r	.	8r	.	8r	.
16ee\L	.	16gg\Lyy	.	8AA/	o-	8a\	o-	16ee\LL	o-
16dd\JJ	.	16ff#\JJyy	.	.	.	.	.	16dd\JJ	.
8ee\L	.	8gg\Lyy	.	8AA/	-san-	8a\	-sa-	8ee\	-san-
8a\J	.	8a\Jyy	.	8AA/	-na	8a\	-na	8cc#\	-na
8a\L	.	8a\Lyy	.	8r	.	8r	.	8r	.
*	*	*	*	*	*Xij	*	*Xij	*	*
16dd\L	.	16ff#\Lyy	.	8D/	o-	8a\	o-	16dd\LL	o-
16cc#\JJ	.	16ee\JJyy	.	.	.	.	.	16cc#\JJ	.
8dd\L	.	8ff#\Lyy	.	8D/	-san-	8a\	-sa-	8dd\	-san-
!	!	!	!	!LO:LB:g=original	!	!	!	!	!
8dd\J	.	8a\Jyy	.	16D/	-na	16a\	-na	16ff#\	-na
.	.	.	.	16D/	o-	16a\	o-	16ff#\	o-
!	!	!	!	!	!	!LO:LB:g=original	!	!	!
=11	=11	=11	=11	=11	=11	=11	=11	=11	=11
8dd\L	.	8ff#\L	.	8AA/	-san-	8a\	-san-	8ee\	-san-
8cc#\J	.	8ee\J	.	8A\	-na	8a\	-na	8ee\	-na
16r	.	16r	.	8r	.	8r	.	8r	.
16a/LL	.	16dd\LL	.	.	.	.	.	.	.
16a/	.	16ff#\	.	8F#\	o-	8a\	o-	8a\	o-
16a/JJ	.	16dd\JJ	.	.	.	.	.	.	.
16g/LL	.	16b\LL	.	8G\	-san-	8g\	-san-	8b\	-san-
16g/	.	16b\	.	.	.	.	.	.	.
16b/	.	16gg\	.	8E\	-na	8g\	-na	8ee\	-na
16b/JJ	.	16gg\JJ	.	.	.	.	.	.	.
!	!	!	!	!	!	!	!	!LO:LB:g=original	!
16a/LL	.	16ff#\LL	.	8A\	in	8a\	in	8dd\	in
16a/	.	16ff#\	.	.	.	.	.	.	.
16g/	.	16ee\	.	8AA/	ex-	8a\	ex-	8cc#\	ex
16g/JJ	.	16ee\JJ	.	.	.	.	.	.	.
=12	=12	=12	=12	=12	=12	=12	=12	=12	=12
!LO:TX:t=P:problem=mixed beam	!	!	!	!	!	!	!	!	!
16f#/LL	.	16ff#\LL	.	8D/	-cel-	8a\	-cel-	8dd\	cel-
16dd\	.	16dd\	.	.	.	.	.	.	.
16cc#\	.	16cc#\	.	8D/	-sis	8a\	-sis	8dd\	-sis
16b\JJ	.	16b\JJ	.	.	.	.	.	.	.
16a/LL	.	16a/LL	.	4r	.	4r	.	4r	.
16g/	.	16g/	.	.	.	.	.	.	.
16f#/	.	16f#/	.	.	.	.	.	.	.
16e/JJ	.	16d/JJ	.	.	.	.	.	.	.
!	!	!LO:TX:t=P:problem=mixed beam	!	!	!	!	!	!	!
8a\L	.	8A/L 8e 8a	.	4r	.	4r	.	4r	.
16ee\L	.	16gg\L	.	.	.	.	.	.	.
16dd\JJ	.	16ff#\JJ	.	.	.	.	.	.	.
8ee\L	.	8gg\L	.	8r	.	8r	.	8r	.
8cc#\J	.	8ee\J	.	8AA/	o-	8a\	o-	8cc#\	o-
=13	=13	=13	=13	=13	=13	=13	=13	=13	=13
8dd\L	.	8ff#\L	.	8D/	-san-	8a\	-san-	8dd\	-san-
16dd\L	.	16ff#\L	.	8D/	-na	8a\	-na	8dd\	-na
16dd\JJ	.	16ff#\JJ	.	.	.	.	.	.	.
8dd\L	.	8ff#\L	.	4r	.	4r	.	4r	.
8dd\J	.	8ff#\J	.	.	.	.	.	.	.
4dd\	.	4ff#\	.	2r	.	2r	.	2r	.
4r	.	4r	.	.	.	.	.	.	.
*	*	*	*	*	*	*	*	*clefC4	*
!	!	!	!	!	!	!	!	!LO:TX:t=P:problem= brak zmiany klucza w źródle	!
!LO:LB:g=original	!	!LO:LB:g=original	!	!LO:LB:g=original	!	!	!	!	!
=14||	=14||	=14||	=14||	=14||	=14||	=14||	=14||	=14||	=14||
*k[f#]	*	*k[f#]	*	*k[f#]	*	*yyk[f#]	*	*k[f#]	*
*M2/4	*	*M2/4	*	*M2/4	*	*yyM2/4	*	*M2/4	*
!LO:TX:b:t=Benedict(us)	!	!LO:TX:b:t=Benedict(us)	!	!	!	!	!	!	!
!LO:TX:a:B:t=Adagio	!	!LO:TX:a:B:t=Adagio	!	!	!	!LO:TX:a:t=Tacet	!	!LO:TX:a:B:t=adagio	!
8g/	.	8dd\	.	2r	.	2ryy	.	2r	.
4g/	.	4dd\	.	.	.	.	.	.	.
8g/	.	16dd\LL	.	.	.	.	.	.	.
.	.	16b\JJ	.	.	.	.	.	.	.
=15	=15	=15	=15	=15	=15	=15	=15	=15	=15
4b\	.	4g/	.	2r	.	2ryy	.	2r	.
4gg\	.	4gg\	.	.	.	.	.	.	.
=16	=16	=16	=16	=16	=16	=16	=16	=16	=16
16ff#\LL	.	16ff#\LL	.	2r	.	2ryy	.	2r	.
16ee\JJ	.	16ee\JJ	.	.	.	.	.	.	.
4dd\	.	4dd\	.	.	.	.	.	.	.
8dd\	.	8gg\	.	.	.	.	.	.	.
=17	=17	=17	=17	=17	=17	=17	=17	=17	=17
16cc\LL	.	16ee\LL	.	2r	.	2ryy	.	2r	.
16a\	.	16cc\	.	.	.	.	.	.	.
16b\	.	16dd\	.	.	.	.	.	.	.
16g\JJ	.	16b\JJ	.	.	.	.	.	.	.
4a/	.	4cc\	.	.	.	.	.	.	.
=18	=18	=18	=18	=18	=18	=18	=18	=18	=18
4g/	.	4b\	.	2r	.	2ryy	.	2r	.
8r	.	8r	.	.	.	.	.	.	.
8b\	.	8dd\	.	.	.	.	.	.	.
=19	=19	=19	=19	=19	=19	=19	=19	=19	=19
!LO:TX:t=P:problem=mixed beam	!	!	!	!	!	!	!	!	!
8cc\L	.	8ee\L	.	2r	.	2ryy	.	2r	.
8e/	.	8cc\J	.	.	.	.	.	.	.
8e/	.	16cc\LL	.	.	.	.	.	.	.
.	.	16dd\	.	.	.	.	.	.	.
8cc/J	.	16ee\	.	.	.	.	.	.	.
.	.	16ff#\JJ	.	.	.	.	.	.	.
=20	=20	=20	=20	=20	=20	=20	=20	=20	=20
8b\L	.	8gg\L	.	2r	.	2ryy	.	2r	.
16dd\L	.	16ff#\L	.	.	.	.	.	.	.
16cc\JJ	.	16ee\JJ	.	.	.	.	.	.	.
8b\L	.	8dd\L	.	.	.	.	.	.	.
8b\J	.	8dd\J	.	.	.	.	.	.	.
=21	=21	=21	=21	=21	=21	=21	=21	=21	=21
!LO:TX:t=P:problem=mixed beam	!	!	!	!	!	!	!	!	!
8cc\L	.	8ee\L	.	2r	.	2ryy	.	2r	.
8e/	.	8cc\J	.	.	.	.	.	.	.
8e/	.	16cc\LL	.	.	.	.	.	.	.
.	.	16dd\	.	.	.	.	.	.	.
8cc/J	.	16ee\	.	.	.	.	.	.	.
.	.	16ff#\JJ	.	.	.	.	.	.	.
=22	=22	=22	=22	=22	=22	=22	=22	=22	=22
8b\L	.	8gg\L	.	2r	.	2ryy	.	2r	.
16dd\L	.	16ff#\L	.	.	.	.	.	.	.
16cc\JJ	.	16ee\JJ	.	.	.	.	.	.	.
8b\L	.	8dd\L	.	.	.	.	.	.	.
8a\J	.	8cc\J	.	.	.	.	.	.	.
=23	=23	=23	=23	=23	=23	=23	=23	=23	=23
8g\L	.	16b\LL	.	2r	.	2ryy	.	2r	.
.	.	16gg\	.	.	.	.	.	.	.
!	!	!LO:TX:a:t=e	!	!	!	!	!	!	!
16cc\L	.	16ee\	.	.	.	.	.	.	.
16a\JJ	.	16cc\JJ	.	.	.	.	.	.	.
8g/L	.	8b/L	.	.	.	.	.	.	.
8f#/J	.	8a/J	.	.	.	.	.	.	.
=24	=24	=24	=24	=24	=24	=24	=24	=24	=24
8g/L	.	16b\LL	.	2r	.	2ryy	.	2r	.
.	.	16gg\	.	.	.	.	.	.	.
16cc/L	.	16ee\	.	.	.	.	.	.	.
16a/JJ	.	16cc\JJ	.	.	.	.	.	.	.
8g/L	.	8b\L	.	.	.	.	.	.	.
8f#/J	.	8a\J	.	.	.	.	.	.	.
!LO:LB:g=original	!	!LO:LB:g=original	!	!	!	!	!	!	!
=25	=25	=25	=25	=25	=25	=25	=25	=25	=25
8g/L	.	8g/L	.	2r	.	2ryy	.	2r	.
!LO:TX:t=P:problem= klamra łukowa	!	!LO:TX:t=P:problem= klamra łukowa	!	!	!	!	!	!	!
24B/L	.	24B/L	.	.	.	.	.	.	.
24c/	.	24c/	.	.	.	.	.	.	.
24d/JJ	.	24d/JJ	.	.	.	.	.	.	.
4G/	.	4G/	.	.	.	.	.	.	.
=26	=26	=26	=26	=26	=26	=26	=26	=26	=26
!	!	!	!LO:DY:a:t=Po.	!	!	!	!	!	!
8b\	.	8dd\	p	2r	.	2ryy	.	8d\	Be-
4dd\	.	4b\	.	.	.	.	.	8d\	-ne-
.	.	.	.	.	.	.	.	8d\	-dic-
8b\	.	8g\	.	.	.	.	.	16d\	-t(us)
.	.	.	.	.	.	.	.	16B\	qui
=27	=27	=27	=27	=27	=27	=27	=27	=27	=27
4g/	.	4g/	.	8GG/L	Be-	2ryy	.	4G/	ve-
.	.	.	.	8AA/J	.	.	.	.	.
4r	.	4gg\	.	8BB/L	-ne-	.	.	8g\	-nit
.	.	.	.	8C/J	.	.	.	8g\	qui
!	!	!	!	!	!	!	!	!LO:LB:g=original	!
=28	=28	=28	=28	=28	=28	=28	=28	=28	=28
4r	.	16ff#\LL	.	8D\	-di-	2ryy	.	16f#\LL	ve-
.	.	16ee\JJ	.	.	.	.	.	16e\JJ	.
.	.	4dd\	.	8D\	-ct(us)	.	.	4d\	-nit
8r	.	.	.	8r	.	.	.	.	.
8dd\	.	8b\	.	8G\	qui	.	.	8d\	qui
=29	=29	=29	=29	=29	=29	=29	=29	=29	=29
16ee\LL	.	16cc\LL	.	8C/L	ve-	2ryy	.	16e\LL	ve-
16cc\	.	16a\	.	.	.	.	.	16c\	.
16dd\	.	16b\	.	8GG/J	.	.	.	16d\	.
16b\JJ	.	16g\JJ	.	.	.	.	.	16B\JJ	.
4cc\	.	4a/	.	8D\	-nit	.	.	4cT\	.
.	.	.	.	8F#\	qui	.	.	.	.
=30	=30	=30	=30	=30	=30	=30	=30	=30	=30
8b\L	.	8g/L	.	8G\	ve-	2ryy	.	4B\	-nit
!	!	!LO:TX:t=P:problem= klamra łukowa	!	!	!	!	!	!	!
8b\	.	24b/L	.	8GG/	-nit	.	.	.	.
.	.	24cc/	.	.	.	.	.	.	.
.	.	24dd/JJ	.	.	.	.	.	.	.
8b\	.	8g/L	.	8r	.	.	.	8r	.
8g\J	.	8b/J	.	16G\	be-	.	.	16B\	be-
.	.	.	.	16G\	-ne-	.	.	16B\	-ne-
=31	=31	=31	=31	=31	=31	=31	=31	=31	=31
8a/	.	8a/	.	8F#\	-di-	2ryy	.	8A\	-di-
4a/	.	4f#/	.	16D\	-ct(us)	.	.	16d\	-ct(us)
.	.	.	.	16D\	qui	.	.	16A\	qui
.	.	.	.	16A\LL	ve-	.	.	8A/L	ve-
.	.	.	.	16AA/	.	.	.	.	.
8g/	.	8e/	.	16BB/	.	.	.	8G/J	.
.	.	.	.	16C#X/JJ	.	.	.	.	.
=32	=32	=32	=32	=32	=32	=32	=32	=32	=32
8f#/L	.	8d/L	.	4D\	-nit	2ryy	.	4F#/	-nit
16f#/L	.	16dd\L	.	.	.	.	.	.	.
16e/JJ	.	16cc#X\JJ	.	.	.	.	.	.	.
8f#/L	.	8dd\L	.	8r	.	.	.	8r	.
8f#/J	.	8a\J	.	8F#\	in	.	.	8A\	in
=33	=33	=33	=33	=33	=33	=33	=33	=33	=33
!LO:TX:t=P:problem=mixed beam	!	!	!	!	!	!	!	!	!
16g/LL	.	8b/L	.	4G\	no-	2ryy	.	16B\LL	no-
16gg\	.	.	.	.	.	.	.	16g\	.
16ff#\	.	16a/L	.	.	.	.	.	16f#\	.
16ee\JJ	.	16g/JJ	.	.	.	.	.	16e\JJ	.
8dd\L	.	8f#/L	.	8A\	-mi-	.	.	8d\	-mi-
8cc#X\J	.	8e/J	.	8A\	-ne	.	.	8c#X\	-ne
=34	=34	=34	=34	=34	=34	=34	=34	=34	=34
!LO:TX:t=P:problem=mixed beam	!	!	!	!	!	!	!	!	!
16g/LL	.	8b/L	.	8G\	no-	2ryy	.	16B\LL	no-
16gg\	.	.	.	.	.	.	.	16g\JJ	.
16ff#\	.	16a/L	.	16G\	-mi-	.	.	16f#\	-mi-
16ee\JJ	.	16g/JJ	.	16G\	-ne	.	.	16e\	-ne
!	!	!	!	!	!	!	!	!LO:LB:g=original	!
8dd\L	.	8f#/L	.	8A\	Do-	.	.	8d\	Do-
8cc#X\J	.	8e/J	.	8AA/	-mi-	.	.	8c#X\	-mi-
=35	=35	=35	=35	=35	=35	=35	=35	=35	=35
!	!	!	!LO:DY:a:t=f.	!	!	!	!	!	!
4d/	.	4d/	f	4D\	-ni	2ryy	.	4d\	-ni
4dd\	.	4dd\	.	4r	.	.	.	4r	.
!LO:LB:g=original	!	!	!	!	!	!	!	!	!
=36	=36	=36	=36	=36	=36	=36	=36	=36	=36
16cc\LL	.	16cc#X\LL	.	2r	.	2ryy	.	2r	.
16b\JJ	.	16b\JJ	.	.	.	.	.	.	.
4a\	.	4a\	.	.	.	.	.	.	.
8ff#\	.	8aa\	.	.	.	.	.	.	.
!	!	!LO:LB:g=original	!	!	!	!	!	!	!
=37	=37	=37	=37	=37	=37	=37	=37	=37	=37
16gg\LL	.	16bb\LL	.	2r	.	2ryy	.	2r	.
16ee\	.	16gg\	.	.	.	.	.	.	.
16ff#\	.	16aa\	.	.	.	.	.	.	.
16dd\JJ	.	16ff#\JJ	.	.	.	.	.	.	.
4ee\	.	4gg\	.	.	.	.	.	.	.
=38	=38	=38	=38	=38	=38	=38	=38	=38	=38
8dd\L	.	16ff#\LL	.	2r	.	2ryy	.	2r	.
.	.	16bb\	.	.	.	.	.	.	.
16b\L	.	16gg\	.	.	.	.	.	.	.
16g\JJ	.	16ee\JJ	.	.	.	.	.	.	.
8f#/L	.	8dd\L	.	.	.	.	.	.	.
8e/J	.	8cc\J	.	.	.	.	.	.	.
=39	=39	=39	=39	=39	=39	=39	=39	=39	=39
8dd\L	.	16ff#\LL	.	2r	.	2ryy	.	2r	.
.	.	16bb\	.	.	.	.	.	.	.
16b\L	.	16gg\	.	.	.	.	.	.	.
16g\JJ	.	16ee\JJ	.	.	.	.	.	.	.
8f#/L	.	8dd\L	.	.	.	.	.	.	.
8e/J	.	8cc\J	.	.	.	.	.	.	.
=40	=40	=40	=40	=40	=40	=40	=40	=40	=40
8dd/L	.	8dd/L	.	2r	.	2ryy	.	2r	.
!LO:TX:t=P:problem= klamra łukowa	!	!LO:TX:t=P:problem= klamra łukowa	!	!	!	!	!	!	!
24f#/L	.	24f#/L	.	.	.	.	.	.	.
24g/	.	24g/	.	.	.	.	.	.	.
24a/JJ	.	24a/JJ	.	.	.	.	.	.	.
4d/	.	4d/	.	.	.	.	.	.	.
=41	=41	=41	=41	=41	=41	=41	=41	=41	=41
!	!LO:DY:a:t=Po.	!	!LO:DY:a:t=P'o	!	!	!	!	!	!
4dd\	p	4b\	p	4B\	be-	2ryy	.	4d\	be-
4ee\	.	4ccn\	.	4c\	-ne-	.	.	4e\	-ne-
=42	=42	=42	=42	=42	=42	=42	=42	=42	=42
!LO:TX:t=P:problem=mixed beam	!	!	!	!	!	!	!	!	!
8dd\L	.	8b\	.	(16B\LL	-di-	2ryy	.	16d\LL	-di-
.	.	.	.	16A\JJ)	.	.	.	16c\JJ	.
8G/	.	4dd\	.	8G\	-ct(us)	.	.	8B\	-ct(us)
8b\	.	.	.	8r	.	.	.	8r	.
8dd\J	.	8b\	.	8B\	qui	.	.	8e\	qui
=43	=43	=43	=43	=43	=43	=43	=43	=43	=43
16ee\LL	.	16cc\LL	.	16c\LL	ve-	2ryy	.	16e\LL	ve-
16cc\	.	16a\	.	16A\	.	.	.	16c\	.
16dd\	.	16b\	.	16B\	.	.	.	16d\	.
16b\JJ	.	16g\JJ	.	16G\JJ	.	.	.	16B\JJ	.
!	!	!	!	!LO:LB:g=original	!	!	!	!	!
4cc\	.	4a/	.	8D\L	.	.	.	4c\	.
.	.	.	.	8F#\J	.	.	.	.	.
=44	=44	=44	=44	=44	=44	=44	=44	=44	=44
8b\L	.	8g/L	.	4G\	-nit	2ryy	.	4B\	-nit
!	!	!LO:TX:t=P:problem= klamra łukowa	!	!	!	!	!	!	!
8b\	.	24b/L	.	.	.	.	.	.	.
.	.	24cc/	.	.	.	.	.	.	.
.	.	24dd/JJ	.	.	.	.	.	.	.
8b\	.	8g/L	.	8r	.	.	.	8r	.
8dd\J	.	8b/J	.	8B\	in	.	.	8d\	in
=45	=45	=45	=45	=45	=45	=45	=45	=45	=45
8dd\	.	8b/	.	8B\	no-	2ryy	.	8d\	no-
4cc\	.	4a/	.	16A\	-mi-	.	.	16c\	-mi-
.	.	.	.	16A\	-ne	.	.	16c\	-ne
.	.	.	.	8A\	Do-	.	.	8c\	Do-
8b\	.	8g/	.	8G\	-mi-	.	.	8B\	-mi-
=46	=46	=46	=46	=46	=46	=46	=46	=46	=46
8a/L	.	8f#/	.	4F#\	-ni	2ryy	.	4A\	-ni
8d/	.	4a/	.	.	.	.	.	.	.
!	!	!	!	!	!	!	!	!LO:LB:g=original	!
8f#/	.	.	.	8r	.	.	.	8r	.
8b/J	.	8dd\	.	8d\	in	.	.	8B\	in
=47	=47	=47	=47	=47	=47	=47	=47	=47	=47
8b/	.	8dd\	.	8d\	no-	2ryy	.	8B\	no-
4a/	.	4cc\	.	16c\	-mi-	.	.	16A\	-mi-
.	.	.	.	16c\	-ne	.	.	16A\	-ne
.	.	.	.	8c\	Do-	.	.	8A\	Do-
8g/	.	8b\	.	8B\	-mi-	.	.	8G/	-mi-
!LO:LB:g=original	!	!	!	!	!	!	!	!	!
=48	=48	=48	=48	=48	=48	=48	=48	=48	=48
8f#/L	.	8a/L	.	4A\	-ni	2ryy	.	4F#/	-ni
!	!	!LO:TX:t=P:problem= klamra łukowa	!	!	!	!	!	!	!
8f#/	.	24f#/L	.	.	.	.	.	.	.
.	.	24g/	.	.	.	.	.	.	.
.	.	24a/JJ	.	.	.	.	.	.	.
8f#/	.	8d/L	.	8r	.	.	.	8r	.
8f#/J	.	8ee\J	.	16c\	be-	.	.	16e\	be-
.	.	.	.	16c\	-ne-	.	.	16e\	-ne-
!	!	!LO:LB:g=original	!	!LO:LB:g=original	!	!	!	!	!
=49	=49	=49	=49	=49	=49	=49	=49	=49	=49
16cc\LL	.	16ee\LL	.	16c\LL	-di-	2ryy	.	16e\LL	-di-
16a\J	.	16cc\J	.	16A\JJ	.	.	.	16c\JJ	.
8b\J	.	8dd\J	.	8B\	-ct(us)	.	.	8d\	-ct(us)
16b\LL	.	16dd\LL	.	8r	.	.	.	8r	.
16g\J	.	16b\J	.	.	.	.	.	.	.
8a\J	.	8cc\J	.	8A\	qui	.	.	8c\	qui
=50	=50	=50	=50	=50	=50	=50	=50	=50	=50
16a/LL	.	16cc\LL	.	16A\LL	ve-	2ryy	.	16c\LL	ve-
16f#/	.	16a\	.	16F#\JJ	.	.	.	16A\JJ	.
16g/	.	16b\	.	8G\	-nit	.	.	8B\	-nit
16a/JJ	.	16cc\JJ	.	.	.	.	.	.	.
8b/L	.	8dd\L	.	8r	.	.	.	8r	.
8a/J	.	8cc\J	.	8A\	in	.	.	8A\	in
=51	=51	=51	=51	=51	=51	=51	=51	=51	=51
16b\LL	.	8b\L	.	4G\	no-	2ryy	.	16B\LL	no-
16gg\	.	.	.	.	.	.	.	16g\	.
16ee\	.	16cc\L	.	.	.	.	.	16f#\	.
16cc\JJ	.	16a\JJ	.	.	.	.	.	16e\JJ	.
8b\L	.	8g/L	.	8G\	-mi-	.	.	8B\	-mi-
8a\J	.	8f#/J	.	8F#\	-ne	.	.	8A\	-ne
!	!	!	!	!	!	!	!	!LO:LB:g=original	!
=52	=52	=52	=52	=52	=52	=52	=52	=52	=52
16b\LL	.	8b\L	.	8G\	no-	2ryy	.	16B\LL	no-
16gg\	.	.	.	.	.	.	.	16g\JJ	.
16ee\	.	16cc\L	.	16C/	-mi-	.	.	16e\	-mi-
16cc\JJ	.	16a\JJ	.	16C/	-ne	.	.	16c\	-ne
8b\L	.	8g/L	.	8.D/	Do-	.	.	8B\	Do-
8a\J	.	8f#/J	.	.	.	.	.	8A\	-mi-
.	.	.	.	16D/	-mi-	.	.	.	.
=53	=53	=53	=53	=53	=53	=53	=53	=53	=53
!	!	!	!LO:DY:a:t=f.	!	!	!	!	!	!
4g/	.	4g/	f	4GG/	-ni	2ryy	.	4B\	-ni
4gg\	.	4gg\	.	4r	.	.	.	4r	.
=54	=54	=54	=54	=54	=54	=54	=54	=54	=54
16ff#\LL	.	16ff#\LL	.	2r	.	2ryy	.	2r	.
16ee\JJ	.	16ee\JJ	.	.	.	.	.	.	.
4dd\	.	4dd\	.	.	.	.	.	.	.
8dd\	.	8gg\	.	.	.	.	.	.	.
=55	=55	=55	=55	=55	=55	=55	=55	=55	=55
16cc\LL	.	16ee\LL	.	2r	.	2ryy	.	2r	.
16a\	.	16cc\	.	.	.	.	.	.	.
16b\	.	16dd\	.	.	.	.	.	.	.
16g\JJ	.	16b\JJ	.	.	.	.	.	.	.
4a/	.	4cc\	.	.	.	.	.	.	.
=56	=56	=56	=56	=56	=56	=56	=56	=56	=56
4g/	.	4b\	.	2r	.	2ryy	.	2r	.
8r	.	8r	.	.	.	.	.	.	.
8b\	.	8dd\	.	.	.	.	.	.	.
=57	=57	=57	=57	=57	=57	=57	=57	=57	=57
8cc/L	.	8ee\L	.	2r	.	2ryy	.	2r	.
8e/	.	8cc\J	.	.	.	.	.	.	.
8e/	.	16cc\LL	.	.	.	.	.	.	.
.	.	16dd\	.	.	.	.	.	.	.
8cc/J	.	16ee\	.	.	.	.	.	.	.
.	.	16ff#\JJ	.	.	.	.	.	.	.
=58	=58	=58	=58	=58	=58	=58	=58	=58	=58
8b\L	.	8gg\L	.	2r	.	2ryy	.	2r	.
16dd\L	.	16ff#\L	.	.	.	.	.	.	.
16cc\JJ	.	16ee\JJ	.	.	.	.	.	.	.
8b\L	.	8dd\L	.	.	.	.	.	.	.
8b\J	.	8dd\J	.	.	.	.	.	.	.
!LO:LB:g=original	!	!	!	!	!	!	!	!	!
=59	=59	=59	=59	=59	=59	=59	=59	=59	=59
!LO:TX:t=P:problem=mixed beam	!	!	!	!	!	!	!	!	!
8cc\L	.	8ee\L	.	2r	.	2ryy	.	2r	.
8e/	.	8cc\J	.	.	.	.	.	.	.
8e/	.	16cc\LL	.	.	.	.	.	.	.
.	.	16dd\	.	.	.	.	.	.	.
8cc/J	.	16ee\	.	.	.	.	.	.	.
.	.	16ff#\JJ	.	.	.	.	.	.	.
=60	=60	=60	=60	=60	=60	=60	=60	=60	=60
8b\L	.	8gg\L	.	2r	.	2ryy	.	2r	.
16dd\L	.	16ff#\L	.	.	.	.	.	.	.
16cc\JJ	.	16ee\JJ	.	.	.	.	.	.	.
8b\L	.	8dd\L	.	.	.	.	.	.	.
8a\J	.	8cc\J	.	.	.	.	.	.	.
!	!	!LO:LB:g=original	!	!	!	!	!	!	!
=61	=61	=61	=61	=61	=61	=61	=61	=61	=61
8g/L	.	16b\LL	.	2r	.	2ryy	.	2r	.
.	.	16gg\	.	.	.	.	.	.	.
16cc/L	.	16ee\	.	.	.	.	.	.	.
16a/JJ	.	16cc\JJ	.	.	.	.	.	.	.
8g/L	.	8b\L	.	.	.	.	.	.	.
8f#/J	.	8a\J	.	.	.	.	.	.	.
=62	=62	=62	=62	=62	=62	=62	=62	=62	=62
8g/L	.	16b\LL	.	2r	.	2ryy	.	2r	.
.	.	16gg\	.	.	.	.	.	.	.
16cc/L	.	16ee\	.	.	.	.	.	.	.
16a/JJ	.	16cc\JJ	.	.	.	.	.	.	.
8g/L	.	8b\L	.	.	.	.	.	.	.
8f#/J	.	8a\J	.	.	.	.	.	.	.
=63	=63	=63	=63	=63	=63	=63	=63	=63	=63
8g/L	.	8g/L	.	2r	.	2ryy	.	2r	.
!LO:TX:t=P:problem= klamra łukowa	!	!LO:TX:t=P:problem= klamra łukowa	!	!	!	!	!	!	!
24B/L	.	24B/L	.	.	.	.	.	.	.
24c/	.	24c/	.	.	.	.	.	.	.
24d/JJ	.	24d/JJ	.	.	.	.	.	.	.
4G/	.	4G/	.	.	.	.	.	.	.
*	*	*	*	*	*	*	*	*clefC1	*
!	!	!	!	!	!	!	!	!LO:TX:t=P:problem= brak zmiany klucza w źródle	!
!	!	!	!	!LO:LB:g=original	!	!LO:LB:g=original	!	!	!
=64||	=64||	=64||	=64||	=64||	=64||	=64||	=64||	=64||	=64||
*k[f#c#]	*	*k[f#c#]	*	*k[f#c#]	*	*k[f#c#]	*	*k[f#c#]	*
*M2/4	*	*M2/4	*	*M2/4	*	*M2/4	*	*M2/4	*
!LO:TX:b:t=Osanna	!	!LO:TX:b:t=Osanna	!	!	!	!	!	!	!
!LO:TX:a:B:t=all'o	!	!LO:TX:a:B:t=all'o	!	!LO:TX:a:B:t=allo	!	!	!	!	!
8ff#\	.	8aa\	.	8D\	o-	8a\	o-	8ff#\	O-
=65	=65	=65	=65	=65	=65	=65	=65	=65	=65
16ff#\LL	.	16aa\LL	.	8D\	-san-	8a\	-san-	8ff#\	-san-
16dd\J	.	16ff#\J	.	.	.	.	.	.	.
8dd\J	.	8ff#\J	.	8D\	-na	8f#\	-na	8dd\	-na
8ee\L	.	8gg\L	.	8A\	in	8g\	in	8ee\	in
8cc#\J	.	8ee\J	.	8A\	ex-	8e\	ex-	8cc#\	ex-
=66	=66	=66	=66	=66	=66	=66	=66	=66	=66
!LO:TX:t=P:problem=mixed beam	!	!	!	!	!	!	!	!	!
8dd\L	.	16dd\LL	.	8d\	-cel-	8f#\	-cel-	8dd\	-cel-
.	.	16ff#\	.	.	.	.	.	.	.
8f#/	.	16a\	.	8D\	-sis	8f#\	-sis	8dd\	-sis
.	.	16dd\JJ	.	.	.	.	.	.	.
8a/	.	16f#/LL	.	8r	.	8r	.	8r	.
.	.	16a/	.	.	.	.	.	.	.
*	*	*	*	*	*ij	*	*ij	*	*ij
8dd/J	.	16d/	.	8D\	o-	8a\	o-	8ff#\	o-
.	.	16aa\JJ	.	.	.	.	.	.	.
=67	=67	=67	=67	=67	=67	=67	=67	=67	=67
16ff#\LL	.	16aa\LL	.	8D\	-san-	8a\	-san-	8ff#\	-san-
16dd\J	.	16ff#\J	.	.	.	.	.	.	.
8dd\J	.	8ff#\J	.	8D\	-na	8f#\	-na	8dd\	-na
!	!	!	!	!	!	!	!	!LO:LB:g=original	!
8ee\L	.	8gg\L	.	8A\	in	8g\	in	8ee\	in
8cc#\J	.	8ee\J	.	8A\	ex-	8e\	ex-	8cc#\	ex-
!LO:LB:g=original	!	!	!	!	!	!	!	!	!
=68	=68	=68	=68	=68	=68	=68	=68	=68	=68
8dd\L	.	8d/L 8a 8ff#	.	8D\	-cel-	8f#\	-cel-	8dd\	-cel-
8dd\J	.	8d/J 8a 8ff#	.	8D\	-sis	8f#\	-sis	8dd\	-sis
8r	.	8r	.	4r	.	4r	.	8r	.
8d/	.	8d/	.	.	.	.	.	8d/	o-
*	*	*	*	*	*	*Xij	*	*Xij	*Xij
=69	=69	=69	=69	=69	=69	=69	=69	=69	=69
8d/L	.	8d/L	.	8r	.	8r	.	8d/L	-san-
16a/L	.	16ccn\L	.	8D\	o-	8d\	o-	16ccn\L	.
16g/JJ	.	16b\JJ	.	.	.	.	.	16b\JJ	.
8a/L	.	8cc\L	.	8D\	-san-	8d\	-san-	8cc\	-na
8d/J	.	8d/J	.	8D\	-na	8d\	-na	8d/	o-
!	!	!	!	!LO:LB:g=original	!	!LO:LB:g=original	!	!	!
=70	=70	=70	=70	=70	=70	=70	=70	=70	=70
!	!	!LO:TX:t=P:problem=mixed beam	!	!	!	!	!	!LO:TX:t=P:problem=mixed beam	!
8d/L	.	8d/L	.	8r	.	8r	.	8d/L	-nas-
*	*	*	*	*	*ij	*	*ij	*	*
16g/L	.	16b\L	.	8G\	o-	8d\	o-	16b\L	.
16f#/JJ	.	16a\JJ	.	.	.	.	.	16a\JJ	.
!	!	!LO:TX:t=P:problem=mixed beam	!	!	!	!	!	!	!
8g/L	.	8b\L	.	8G\	-san-	8d\	-sa-	8b\	-na
8d/J	.	8d/J	.	8G\	-na	8d\	-na	8r	.
!	!	!LO:LB:g=original	!	!	!	!	!	!	!
=71	=71	=71	=71	=71	=71	=71	=71	=71	=71
8d/L	.	8d/L	.	8r	.	8r	.	8r	.
16a/L	.	16ccn\L	.	8D\	o-	8d\	o-	16a\LL	o-
16g/JJ	.	16b\JJ	.	.	.	.	.	16g\JJ	.
!	!	!	!	!	!	!	!	!	!
8a/L	.	8cc\L	.	8D\	-san-	8d\	-san-	8a\	-san-
8d/J	.	8d/J	.	8D\	-na	8d\	-na	8f#/	-na
*	*	*	*	*	*Xij	*	*Xij	*	*
=72	=72	=72	=72	=72	=72	=72	=72	=72	=72
!	!	!LO:TX:t=P:problem=mixed beam	!	!	!	!	!	!	!
8d/L	.	8d/L	.	8r	.	8r	.	8r	.
16g/L	.	16b\L	.	8G\	o-	8d\	o-	16g/LL	o-
16f#/JJ	.	16a\JJ	.	.	.	.	.	16f#/JJ	.
8g/L	.	8b\L	.	8G\	-san-	8d\	-san-	8g\	-san-
8b/J	.	8dd\J	.	16G\	-na	16d\	-na	16dd\	-na
.	.	.	.	16G\	o-	16g\	o-	16dd\	o-
!	!	!	!	!	!	!	!	!LO:LB:g=original	!
=73	=73	=73	=73	=73	=73	=73	=73	=73	=73
16b/LL	.	16dd\LL	.	8G\	-san-	8g\	-san-	8dd\	-san-
16g/J	.	16b\J	.	.	.	.	.	.	.
8g/J	.	8b\J	.	8G\	-na	8g\	-na	8b\	-na
8a/L	.	8ccn\L	.	8D\	in	8d\	in	8ccn\	in
8f#/J	.	8a\J	.	8D\	ex-	8d\	ex-	8a\	ex-
=74	=74	=74	=74	=74	=74	=74	=74	=74	=74
8g/L	.	16g/LL	.	8G\	-cel-	8d\	-cel-	8b\	-cel-
.	.	16b/	.	.	.	.	.	.	.
8G/	.	16d/	.	8G\	-sis	8d\	-sis	8b\	-sis
.	.	16g/JJ	.	.	.	.	.	.	.
8B/	.	16B/LL	.	8r	.	8r	.	8r	.
.	.	16d/	.	.	.	.	.	.	.
*	*	*	*	*	*ij	*	*	*	*
8g/J	.	16G/	.	8G\	o-	8g\	o-	8dd\	o-
.	.	16dd/JJ	.	.	.	.	.	.	.
=75	=75	=75	=75	=75	=75	=75	=75	=75	=75
16g/LL	.	8dd\L	.	8GG/	-san-	8g\	-san-	8dd\	-san-
16g/J	.	.	.	.	.	.	.	.	.
8g/J	.	16b\L	.	8GG/	-na	8g\	-na	8b\	-na
.	.	16b\JJ	.	.	.	.	.	.	.
!	!	!	!	!	!	!LO:LB:g=original	!	!	!
8a/L	.	8ccn\L	.	8D\	in	8d\	in	8ccn\	in
8f#/J	.	8a\J	.	8D\	ex-	8d\	ex-	8a\	ex-
!	!	!	!	!LO:LB:g=original	!	!	!	!	!
=76	=76	=76	=76	=76	=76	=76	=76	=76	=76
8g/L	.	8G/L 8d 8b	.	8G\	-cel-	8d\	-cel-	8b\	-cel-
8g/J	.	8G/J 8d 8b	.	8G\	-sis	8d\	-sis	8b\	-sis
*	*	*	*	*	*Xij	*	*	*	*
8r	.	8r	.	4r	.	4r	.	8r	.
8e/	.	8e/	.	.	.	.	.	8e/	o-
=77	=77	=77	=77	=77	=77	=77	=77	=77	=77
!	!	!LO:TX:t=P:problem=mixed beam	!	!	!	!	!	!LO:TX:t=P:problem=mixed beam	!
8e/L	.	8e/L	.	8r	.	8r	.	8e/L	-san-
16b/L	.	16dd\L	.	8E\	o-	8e\	o-	16dd\L	.
16a/JJ	.	16cc#X\JJ	.	.	.	.	.	16cc#X\JJ	.
8b/L	.	8dd\L	.	8E\	-san-	8e\	-san-	8dd\	-na
8e/J	.	8e/J	.	8E\	-na	8e\	-na	8e/	o-
=78	=78	=78	=78	=78	=78	=78	=78	=78	=78
!	!	!LO:TX:t=P:problem=mixed beam	!	!	!	!	!	!	!
8e/L	.	8e/L	.	8r	.	8r	.	8e\L	-san-
*	*	*	*	*	*ij	*	*ij	*	*
16a/L	.	16cc#\L	.	8A\	o-	8e\	o-	16cc#\L	.
16g#X/JJ	.	16b\JJ	.	.	.	.	.	16b\JJ	.
!LO:LB:g=original	!	!	!	!	!	!	!	!LO:LB:g=original	!
8a/L	.	8cc#\L	.	8A\	-san-	8e\	-san-	8cc#\	-na
8e/J	.	8e/J	.	8A\	-na	8e\	-na	8r	.
=79	=79	=79	=79	=79	=79	=79	=79	=79	=79
8e/L	.	8e/L	.	8r	.	8r	.	8r	.
16b/L	.	16dd\L	.	8E\	o-	8e\	o-	16b\LL	o-
16a/JJ	.	16cc#\JJ	.	.	.	.	.	16a\JJ	.
8b/L	.	8dd\L	.	8E\	-san-	8e\	-san-	8b\	-san-
8e/J	.	8e/J	.	8E\	-na	8e\	-na	8g#X\	-na
*	*	*	*	*	*Xij	*	*Xij	*	*
=80	=80	=80	=80	=80	=80	=80	=80	=80	=80
!	!	!LO:TX:t=P:problem=mixed beam	!	!	!	!	!	!	!
8e/L	.	8e/L	.	8r	.	8r	.	8r	.
16a/L	.	16cc#\L	.	8AA/	o-	8e\	o-	16a\LL	o-
16g#X/JJ	.	16b\JJ	.	.	.	.	.	16g#X\JJ	.
8a\L	.	8cc#\L	.	8AA/	-san-	8e\	-san-	8a\	-san-
8cc#\J	.	8ee\J	.	16AA/	-na	16e\	-na	16ee\	-na
.	.	.	.	16AA/	o-	16a\	o-	16ee\	o-
!	!	!LO:LB:g=original	!	!	!	!LO:LB:g=original	!	!	!
=81	=81	=81	=81	=81	=81	=81	=81	=81	=81
16cc#\LL	.	16ee\LL	.	8AA/	-san-	8a\	-san-	8ee\	-san-
16a\J	.	16cc#\J	.	.	.	.	.	.	.
8a\J	.	8cc#\J	.	8AA/	-na	8a\	-na	8cc#\	-na
8b\L	.	8dd\L	.	8E\	in	8e\	in	8dd\	in
8g#X\J	.	8b\J	.	8E\	ex-	8e\	ex-	8b\	ex-
!	!	!	!	!LO:LB:g=original	!	!	!	!	!
=82	=82	=82	=82	=82	=82	=82	=82	=82	=82
8a/L	.	16a/LL	.	8A\	-cel-	8e\	-cel-	8cc#\	-cel-
.	.	16cc#/	.	.	.	.	.	.	.
8c#/	.	16e/	.	8A\	-sis	8e\	-sis	8cc#\	-sis
.	.	16a/JJ	.	.	.	.	.	.	.
!	!	!LO:TX:t=P:problem=mixed beam	!	!	!	!	!	!	!
8e/	.	16c#/LL	.	8r	.	8r	.	8r	.
.	.	16e/	.	.	.	.	.	.	.
*	*	*	*	*	*ij	*	*	*	*
8a/J	.	16A/	.	8AA/	o-	8a\	o-	8ee\	o-
.	.	16ee\JJ	.	.	.	.	.	.	.
=83	=83	=83	=83	=83	=83	=83	=83	=83	=83
16cc#\LL	.	16ee\LL	.	8AA/	-san-	8a\	-san-	8ee\	-san-
16a\J	.	16cc#\J	.	.	.	.	.	.	.
8a\J	.	8cc#\J	.	8AA/	-na	8a\	-na	8cc#\	-na
8b\L	.	8dd\L	.	8E\	in	8e\	in	8dd\	in
8g#X\J	.	8b\J	.	8E\	ex-	8e\	ex-	8b\	ex-
!	!	!	!	!	!	!	!	!LO:LB:g=original	!
=84	=84	=84	=84	=84	=84	=84	=84	=84	=84
8a/L	.	8A/L 8e 8cc#	.	8A\	-cel-	8e\	-cel-	8cc#\	-cel-
8a/J	.	8A/J 8e 8cc#	.	8A\	-sis	8e\	-sis	8cc#\	-sis
*	*	*	*	*	*	*Xij	*	*	*
8r	.	8r	.	4r	.	4r	.	8r	.
8a/	.	8a/	.	.	.	.	.	8a\	o-
=85	=85	=85	=85	=85	=85	=85	=85	=85	=85
!	!	!	!	!	!	!	!	!	!
8a\L	.	8a\L	.	8r	.	8r	.	8a\L	-san-
16ee\L	.	16gg\L	.	8A\	o-	8a\	o-	16gg\L	.
16dd\JJ	.	16ff#\JJ	.	.	.	.	.	16ff#\JJ	.
8ee\L	.	8gg\L	.	8A\	-san-	8a\	-san-	8gg\	-na
8cc#\J	.	8a\J	.	8A\	-na	8a\	-na	8a\	o-
!	!	!	!	!	!	!LO:LB:g=original	!	!	!
=86	=86	=86	=86	=86	=86	=86	=86	=86	=86
!	!	!	!	!	!	!	!	!	!
8a\L	.	8a\L	.	8r	.	8r	.	8a\L	-san-
*	*	*	*	*	*	*	*ij	*	*
16dd\L	.	16ff#\L	.	8D\	o-	8a\	o-	16ff#\L	.
16cc#\JJ	.	16ee\JJ	.	.	.	.	.	16ee\JJ	.
8dd\L	.	8ff#\L	.	8D\	-san-	8a\	-sa-	8ff#\	-na
8a\J	.	8a\J	.	8D\	-na	8a\	-na	8r	.
=87	=87	=87	=87	=87	=87	=87	=87	=87	=87
8a\L	.	8a\L	.	8r	.	8r	.	8r	.
16ee\L	.	16gg\L	.	8AA/	o-	8a\	o-	16ee\LL	o-
16dd\JJ	.	16ff#\JJ	.	.	.	.	.	16dd\JJ	.
8ee\L	.	8gg\L	.	8AA/	-san-	8a\	-san-	8ee\	-san-
8cc#\J	.	8a\J	.	8AA/	-na	8a\	-na	8cc#\	-na
*	*	*	*	*	*Xij	*	*Xij	*	*
!	!	!	!	!LO:LB:g=original	!	!	!	!	!
=88	=88	=88	=88	=88	=88	=88	=88	=88	=88
8a\L	.	8a\L	.	8r	.	8r	.	8r	.
16dd\L	.	16ff#\L	.	8D\	o-	8a\	o-	16dd\LL	o-
16cc#\JJ	.	16ee\JJ	.	.	.	.	.	16cc#\JJ	.
8dd\L	.	8ff#\L	.	8D\	-san-	8a\	-san-	8dd\	-san-
8ff#\J	.	8aa\J	.	16D\	-na	16a\	-na	16ff#\	-na
.	.	.	.	16D\	o-	16a\	in	16ff#\	o-
!LO:LB:g=original	!	!	!	!	!	!	!	!	!
=89	=89	=89	=89	=89	=89	=89	=89	=89	=89
16ff#\LL	.	16aa\LL	.	8D\	-san-	8a\	ex-	8ff#\	-san-
16dd\J	.	16ff#\J	.	.	.	.	.	.	.
8dd\J	.	8ff#\J	.	8D\	-na	8f#\	-cel-	8dd\	-na
8ee\L	.	8gg\L	.	8A\	in	8g\	-sis	8ee\	in
8cc#\J	.	8ee\J	.	8A\	ex-	8e\	o-	8cc#\	ex-
!	!	!	!	!	!	!	!	!LO:LB:g=original	!
=90	=90	=90	=90	=90	=90	=90	=90	=90	=90
8dd\L	.	16dd\LL	.	8d\	-cel-	8f#\	-san-	8dd\	-cel-
.	.	16ff#\	.	.	.	.	.	.	.
8f#/J	.	16a\	.	8D\	-sis	8f#\	-na	8dd\	-sis
.	.	16dd\JJ	.	.	.	.	.	.	.
8a\L	.	16f#/LL	.	8r	.	8r	.	8r	.
.	.	16a/	.	.	.	.	.	.	.
*	*	*	*	*	*ij	*	*	*	*
8dd\J	.	16d/	.	8D\	o-	8a\	o-	8ff#\	o-
.	.	16aa\JJ	.	.	.	.	.	.	.
=91	=91	=91	=91	=91	=91	=91	=91	=91	=91
16ff#\LL	.	16aa\LL	.	8D\	-san-	8a\	-san-	8ff#\	-san-
16dd\J	.	16ff#\J	.	.	.	.	.	.	.
8dd\J	.	8ff#\J	.	8D\	-na	8f#\	-na	8dd\	-na
8ee\L	.	8gg\L	.	8A\	in	8g\	in	8ee\	in
8cc#\J	.	8ee\J	.	8A\	ex-	8e\	ex-	8cc#\	ex-
!	!	!	!	!	!	!LO:LB:g=original	!	!	!
=92	=92	=92	=92	=92	=92	=92	=92	=92	=92
8dd\L	.	8d/L 8a 8ff#	.	8D\	-cel-	8f#\	-cel-	8dd\	-cel-
8dd\J	.	8d/J 8a 8ff#	.	8D\	-sis	8f#\	-sis	8dd\	-sis
*	*	*	*	*	*	*Xij	*	*	*
16r	.	16r	.	8r	.	8r	.	8r	.
16a/LL	.	16dd\LL	.	.	.	.	.	.	.
*	*	*	*	*	*	*	*ij	*	*
16a/	.	16ff#\	.	8F#\	o-	8a\	o-	8a\	o-
16a/JJ	.	16dd\JJ	.	.	.	.	.	.	.
=93	=93	=93	=93	=93	=93	=93	=93	=93	=93
16g/LL	.	16b\LL	.	8G\	-san-	8g\	-san-	8b\	-san-
16g/	.	16b\	.	.	.	.	.	.	.
16b/	.	16gg\	.	8E\	-na	8g\	-na	8ee\	-na
16b/JJ	.	16gg\JJ	.	.	.	.	.	.	.
16a/LL	.	16ff#\LL	.	8A\	in	8a\	in	8dd\	in
16a/	.	16ff#\	.	.	.	.	.	.	.
16g/	.	16ee\	.	8A\	ex-	8a\	ex-	8cc#\	ex-
16g/JJ	.	16ee\JJ	.	.	.	.	.	.	.
!	!	!	!	!LO:LB:g=original	!	!	!	!	!
=94	=94	=94	=94	=94	=94	=94	=94	=94	=94
8f#/L	.	16dd\LL	.	8D\	-cel-	8a\	-cel-	8dd\	-cel-
.	.	16ff#\	.	.	.	.	.	.	.
8f#/	.	16a\	.	8D\	-sis	8a\	-sis	8dd\	-sis
*	*	*	*	*	*	*	*Xij	*	*
.	.	16dd\JJ	.	.	.	.	.	.	.
8d/	.	16f#/LL	.	4r	.	4r	.	4r	.
.	.	16a/	.	.	.	.	.	.	.
8f#/J	.	16d/	.	.	.	.	.	.	.
.	.	16f#/JJ	.	.	.	.	.	.	.
=95	=95	=95	=95	=95	=95	=95	=95	=95	=95
!	!	!LO:TX:t=P:problem=mixed beam	!	!	!	!	!	!	!
8a\L	.	8A/L 8d 8a	.	4r	.	4r	.	4r	.
16ee\L	.	16gg\L	.	.	.	.	.	.	.
16dd\JJ	.	16ff#\JJ	.	.	.	.	.	.	.
8ee\L	.	8gg\L	.	8r	.	8r	.	8r	.
8cc#\J	.	8ee\J	.	8AA/	o-	8a\	o-	8cc#\	o-
=96	=96	=96	=96	=96	=96	=96	=96	=96	=96
*^	*	*	*	*	*	*	*	*	*
8ff#/L	8d\L 8dd	.	8d/L 8a 8ff#	.	8D/	-san-	8a\	-san-	8dd\	-san-
8ff#/J	8d\J 8dd	.	8d/J 8a 8ff#	.	8D/	-na	8a\	-na	8dd\	-na
4r	4r	.	4r	.	4r	.	4r	.	4r	.
*v	*v	*	*	*	*	*	*	*	*	*
==	==	==	==	==	==	==	==	==	==
*-	*-	*-	*-	*-	*-	*-	*-	*-	*-
!!!system-decoration: [(s1,s2,s3)][(s4,s5)]
!!!ENC: Berenika Jozajtis
!!!END: 2020-12-14
!!!ENC: Jan Barakat
!!!END: 2022-03-27
!!!YEC: Copyright 2022 Narodowy Instytut Fryderyka Chopina (https://polishscores.org)
!!!YEM: License CC-BY-4.0 (https://creativecommons.org/licenses/by/4.0)
